public/img/events/flower.svg

<svg width="200" height="200" viewBox="0 0 200 200" fill="none" xmlns="http://www.w3.org/2000/svg">
<path d="M86.5827 198.923C92.0179 180.67 100.207 163.389 106.08 145.283C108.983 136.322 111.269 127.153 112.335 117.788C112.871 113.064 113.308 108.223 112.507 103.51C111.7 98.7548 110.055 94.1032 107.559 89.9521C105.1 85.8683 101.329 82.4254 97.8289 79.2205C94.378 76.0584 90.7731 73.0672 87.3345 69.8929C85.5475 68.2386 83.6988 66.5599 82.1028 64.7163C81.4372 63.9472 80.9935 63.0193 80.4328 62.1769C79.8289 61.2795 78.9908 60.5592 78.5595 59.5581C78.1096 58.5081 77.8138 57.3971 77.2099 56.4081C76.5197 55.2788 75.3243 54.6257 74.7758 53.4048C73.8761 51.3964 72.9641 49.388 72.1322 47.3552C68.8169 39.2363 66.4013 29.9759 71.1216 21.8813C75.1086 15.0505 81.7946 9.45878 88.9614 6.13795C96.1835 2.79271 104.503 1.9503 112.064 4.67289C116.759 6.36382 121.375 8.14632 126.262 9.27564C128.677 9.83725 131.13 10.2524 133.601 10.5087C134.809 10.6369 136.023 10.7163 137.237 10.7529C138.37 10.7834 139.19 10.8994 140.133 11.5709C141.495 12.5476 142.438 14.031 143.602 15.2092C143.454 14.849 143.3 14.4889 143.152 14.1287C142.82 19.9951 141.334 25.6905 139.554 31.27C138.666 34.0658 137.705 36.8373 136.781 39.6148C135.844 42.4412 135.098 45.3469 134.045 48.1244C130.341 57.916 124.9 67.3473 116.932 74.3614C113.475 77.4014 109.34 79.9103 104.7 80.6062C99.3386 81.412 94.3102 79.0068 89.1955 77.8104C86.2684 77.1267 83.2613 76.6444 80.2479 76.5834C77.5304 76.5285 74.8929 76.9619 72.2308 77.4197C67.4366 78.2438 62.4883 79.2388 57.6077 78.6162C55.2907 78.3232 53.0415 77.5784 51.0634 76.3331C48.9189 74.9779 47.2058 72.9573 45.6406 70.9917C42.5225 67.0849 39.9405 62.7324 36.3109 59.2406C35.3743 58.3372 34.3698 57.5192 33.3161 56.75C33.5502 57.0552 33.7906 57.3605 34.0247 57.6596C32.2007 53.2033 32.8847 48.0328 36.2801 44.4801C37.1428 43.5766 38.1165 42.8318 39.2072 42.2275C40.2671 41.6415 41.6659 41.4522 42.6088 40.7319C42.9908 40.4389 43.3236 40.0604 43.6132 39.9566C44.5006 39.6331 45.4681 39.4561 46.3862 39.2363C48.2226 38.7907 50.0774 38.4061 51.9323 38.0398C55.5742 37.3195 59.2346 36.6786 62.8395 35.7995C64.6451 35.36 66.4383 34.8655 68.2007 34.2795C69.7351 33.7728 71.1278 33.2784 72.428 32.2955C74.1226 31.0197 76.2301 28.0529 78.6765 28.9991C79.909 29.4753 80.3773 30.507 80.8457 31.6424C81.4804 33.1929 82.1952 34.7007 83.0086 36.1658C84.6046 39.0288 86.5273 41.6903 88.5855 44.242C89.6146 45.5239 90.6868 46.7692 91.7775 48.0023C92.8313 49.1927 93.5892 50.3403 94.2486 51.7932C95.5858 54.7355 96.9168 57.5863 97.2619 60.8339C97.6378 64.3684 97.2743 67.909 96.8984 71.4251C96.5718 74.5018 96.3561 77.5601 96.2636 80.649C96.2328 81.6318 96.3869 82.7122 97.151 83.4204C98.2479 84.4398 99.7577 84.0552 101.076 83.805C107.245 82.6573 112.421 78.9519 117.369 75.3442C118.633 74.4224 119.902 73.4945 121.184 72.6033C122.422 71.7425 123.778 70.9978 124.801 69.8746C125.769 68.8063 126.477 67.5671 127.112 66.2852C127.784 64.9361 128.572 63.6236 129.17 62.244C130.569 59.0148 130.624 55.5535 130.205 52.1167C130.002 50.4319 129.836 48.6982 129.484 47.0378C129.232 45.8597 128.954 44.6876 128.8 43.4911C128.215 39.0165 128.492 33.6996 132.054 30.4215C134.032 28.6024 136.867 27.7538 139.449 27.1739C142.247 26.5452 145.174 26.4047 148.021 26.7649C153.727 27.4852 159.051 30.3116 162.551 34.8655C165.99 39.3401 167.654 45.2004 166.655 50.7921C165.756 55.8343 162.416 60.5287 158.811 64.0509C155.046 67.7258 150.547 70.5644 145.907 73.0245C143.602 74.2454 141.242 75.3747 138.87 76.4552C135.979 77.7737 133.059 78.5612 129.891 78.9336C126.274 79.367 122.583 79.7394 118.941 79.7394C115.157 79.7394 111.374 79.7455 107.59 79.7821C103.677 79.8187 99.7577 79.8859 95.8446 80.0141C92.2335 80.1301 88.5238 80.0507 85.0052 80.9481C81.7947 81.7661 78.4485 83.1701 76.0206 85.4593C73.9686 87.3883 72.6868 89.9582 71.8549 92.6015C71.06 95.1226 70.6841 97.7414 70.1788 100.324C70.0001 101.227 70.5916 102.332 71.6639 102.253C72.9703 102.161 74.3075 101.752 75.0038 100.562C75.5215 99.6766 75.5276 98.5167 74.9853 97.6438C74.3691 96.6487 73.1058 96.2519 72.0521 96.8197C70.8135 97.4789 70.4006 99.0661 70.1788 100.33C70.0247 101.19 70.5793 102.387 71.6639 102.259C74.8559 101.899 78.0726 101.789 81.2832 101.746C84.087 101.709 87.2976 102.228 89.8364 100.769C91.9069 99.5789 93.1209 97.4789 93.9775 95.3424C94.4211 94.2375 94.7601 93.0959 95.0682 91.9483C95.3948 90.7396 95.5673 89.4272 96.0357 88.2673C97.0894 85.6485 99.7885 83.7378 102.432 82.9381C104.324 82.3643 103.517 79.4159 101.612 79.9958C99.0428 80.7771 96.6211 82.2727 94.9141 84.336C94.0452 85.386 93.3427 86.5459 92.9299 87.8522C92.5601 89.006 92.3506 90.2268 92.0302 91.3928C91.4817 93.4012 90.8532 95.6842 89.3804 97.247C87.581 99.1577 84.9559 98.6571 82.5526 98.6754C78.923 98.7059 75.2811 98.7975 71.67 99.2065C72.163 99.8475 72.6622 100.495 73.1551 101.136C73.2291 100.702 73.3092 100.256 73.4571 99.8414C73.5002 99.7254 73.5249 99.6643 73.5619 99.585C73.6728 99.3103 73.6173 99.4873 73.5988 99.469C73.6235 99.4385 73.6543 99.4141 73.6789 99.3835C73.6112 99.4568 73.5249 99.5056 73.4263 99.53C73.1921 99.5667 73.0627 99.6094 72.8162 99.5545C72.5759 99.4995 72.6622 99.4995 72.5636 99.4263C72.5266 99.4018 72.2 99.1027 72.3787 99.2553C72.3171 99.2004 72.2986 98.9379 72.3294 99.1455C72.3479 99.2981 72.2185 99.0356 72.3294 99.1271C72.3725 99.1638 72.3602 99.2553 72.3479 99.0295C72.3602 99.2675 72.4157 98.9318 72.3602 99.0234C72.2801 99.1454 72.5636 98.8708 72.3417 99.0478C72.5697 98.8708 72.3232 99.06 72.2616 99.0905C72.2431 99.0966 71.9104 99.1943 71.6824 99.2065C72.1754 99.8475 72.6745 100.495 73.1675 101.136C73.7344 98.2298 74.1473 95.2813 75.1579 92.4855C76.2856 89.3783 78.2575 87.1563 81.2031 85.6119C82.7683 84.7878 84.4506 84.2201 86.1698 83.805C88.0863 83.341 89.9905 83.2922 91.9562 83.2067C96.1281 83.0297 100.306 82.9259 104.484 82.8649C108.724 82.8038 112.963 82.7916 117.209 82.7855C119.335 82.7855 121.418 82.755 123.538 82.5658C125.485 82.3948 127.439 82.2544 129.386 82.0408C133.022 81.6379 136.423 80.9114 139.751 79.4036C142.364 78.2194 144.958 76.9924 147.497 75.6494C152.63 72.9329 157.615 69.7098 161.682 65.5465C165.762 61.365 169.28 55.8282 169.878 49.9374C170.537 43.4423 168.498 37.1791 164.332 32.1612C160.166 27.1434 153.943 24.2804 147.478 23.6516C144.249 23.3403 140.934 23.6333 137.797 24.4452C134.852 25.2083 131.845 26.3559 129.651 28.523C125.553 32.5641 125.103 38.7357 125.843 44.1077C126.027 45.4384 126.342 46.7265 126.607 48.0389C126.964 49.8092 127.161 51.6894 127.315 53.4902C127.469 55.2788 127.506 57.1163 127.1 58.8744C126.693 60.6446 125.799 62.1036 125.004 63.7152C124.345 65.046 123.741 66.4866 122.755 67.622C121.695 68.8368 120.179 69.6121 118.873 70.54C116.051 72.5361 113.315 74.6605 110.406 76.5345C107.652 78.2987 104.737 79.8187 101.532 80.6062C101.126 80.7039 100.713 80.7955 100.3 80.8748C100.084 80.9175 99.2277 80.9176 99.0921 81.0885C99.1291 81.0458 99.277 81.3143 99.4372 81.3754C99.5666 81.4242 99.2955 81.6501 99.4187 81.3387C99.4311 81.3082 99.3756 81.0824 99.4002 81.2655C99.3386 80.8199 99.4126 80.3498 99.4372 79.8981C99.4804 79.074 99.468 78.2438 99.505 77.4197C99.6899 73.5006 100.349 69.6243 100.516 65.7052C100.596 63.7762 100.534 61.8472 100.281 59.9365C100.023 58.0075 99.542 56.2617 98.7902 54.473C98.1616 52.9713 97.5208 51.488 96.8429 50.0107C96.1158 48.4174 95.1668 47.1721 94.0083 45.8596C91.6111 43.1493 89.3065 40.3534 87.3345 37.3134C86.3794 35.8422 85.5043 34.3222 84.7341 32.7473C83.9699 31.1907 83.5386 29.402 82.4294 28.0468C80.439 25.6234 76.9449 25.0801 74.3506 26.8565C73.0935 27.7111 72.0459 28.8038 70.8505 29.7378C69.4639 30.8244 67.8186 31.2578 66.1486 31.7645C62.2726 32.9487 58.2917 33.7423 54.3171 34.5054C50.404 35.2562 46.2877 35.8483 42.504 37.1059C41.7707 37.35 41.4318 37.9483 40.8156 38.3268C40.5444 38.4977 39.6262 38.7174 39.1579 38.9189C37.8145 39.4866 36.5944 40.2374 35.4667 41.147C31.0114 44.7425 29.1072 50.7676 30.3952 56.2678C30.5431 56.9026 30.7341 57.5192 30.9682 58.1296C31.338 59.0819 31.9665 59.4787 32.7245 60.1074C33.9631 61.133 35.097 62.2806 36.1569 63.4893C38.2767 65.925 40.0638 68.611 41.9987 71.1931C43.9583 73.8059 46.0412 76.4491 48.6971 78.3903C51.3222 80.3071 54.4526 81.3021 57.6694 81.6867C64.0473 82.4437 70.4129 80.7039 76.68 79.8065C80.4451 79.2693 84.4136 79.8554 88.0863 80.6917C91.6296 81.4975 95.0682 82.9015 98.6484 83.518C104.928 84.5985 111.041 82.639 116.118 78.9702C121.467 75.1061 125.799 69.899 129.417 64.4355C133.416 58.386 136.294 51.7077 138.407 44.8097C140.607 37.643 143.405 30.6412 145.007 23.3098C145.426 21.3991 145.753 19.464 145.993 17.5228C146.104 16.6376 146.19 15.7525 146.252 14.8673C146.289 14.3607 146.357 13.8418 146.086 13.3839C145.876 13.0299 145.513 12.7369 145.241 12.4316C143.165 10.1303 141.242 7.78615 137.859 7.73732C130.033 7.61523 122.478 5.35048 115.219 2.62789C112.144 1.47415 109.167 0.521852 105.883 0.167794C102.771 -0.167951 99.6221 0.0151873 96.5471 0.582902C90.4157 1.70612 84.617 4.51417 79.681 8.2501C74.5786 12.1203 69.6611 17.1992 67.1654 23.1511C64.454 29.6096 65.2798 36.7152 67.3873 43.2164C68.4718 46.5495 69.8583 49.7726 71.2818 52.9714C71.6022 53.6856 71.9227 54.4059 72.2431 55.1201C72.6807 56.0968 73.3893 56.6829 74.1226 57.4459C75.3736 58.7462 75.4598 60.6446 76.4889 62.0914C76.9696 62.7629 77.5612 63.3184 78.0048 64.0143C78.4547 64.7163 78.8552 65.455 79.3544 66.1264C80.4944 67.6465 81.9549 68.9772 83.3229 70.2958C85.9788 72.8658 88.7765 75.2892 91.5618 77.7249C97.0154 82.4986 103.042 87.4371 106.314 94.0116C107.96 97.3202 109.02 100.897 109.623 104.53C110.221 108.125 109.882 111.861 109.556 115.475C108.909 122.672 107.436 129.784 105.507 136.749C101.6 150.869 95.8508 164.384 90.6313 178.052C88.1048 184.681 85.6954 191.359 83.668 198.16C83.0517 200.003 86.022 200.809 86.5827 198.923Z" fill="black"/>
</svg>

<svg xmlns="http://www.w3.org/2000/svg" width="200" height="200" fill="none"><path fill="#000" d="M86.583 198.923c5.435-18.253 13.624-35.534 19.497-53.64 2.903-8.961 5.189-18.13 6.255-27.495.536-4.724.973-9.565.172-14.278-.807-4.755-2.452-9.407-4.948-13.558-2.459-4.084-6.23-7.527-9.73-10.731-3.451-3.163-7.056-6.154-10.494-9.328-1.787-1.654-3.636-3.333-5.232-5.177-.666-.769-1.11-1.697-1.67-2.54-.604-.897-1.442-1.617-1.874-2.618-.45-1.05-.745-2.16-1.35-3.15-.69-1.13-1.885-1.782-2.433-3.003-.9-2.009-1.812-4.017-2.644-6.05-3.315-8.119-5.73-17.38-1.01-25.474 3.987-6.83 10.673-12.422 17.84-15.743 7.221-3.345 15.541-4.188 23.102-1.465 4.695 1.69 9.311 3.473 14.198 4.603 2.415.561 4.868.976 7.339 1.233a48 48 0 0 0 3.636.244c1.133.03 1.953.146 2.896.818 1.362.977 2.305 2.46 3.469 3.638-.148-.36-.302-.72-.45-1.08-.332 5.866-1.818 11.562-3.598 17.141-.888 2.796-1.849 5.567-2.773 8.345-.937 2.826-1.683 5.732-2.736 8.51-3.704 9.791-9.145 19.222-17.113 26.236-3.457 3.04-7.592 5.55-12.232 6.245-5.361.806-10.39-1.6-15.505-2.796-2.927-.683-5.934-1.166-8.947-1.227-2.718-.055-5.355.379-8.017.837-4.794.824-9.743 1.819-14.623 1.196-2.317-.293-4.566-1.038-6.545-2.283-2.144-1.355-3.857-3.376-5.422-5.341-3.118-3.907-5.7-8.26-9.33-11.751a28.4 28.4 0 0 0-2.995-2.491c.234.305.475.61.709.91-1.824-4.457-1.14-9.627 2.255-13.18a12.2 12.2 0 0 1 2.927-2.252c1.06-.587 2.459-.776 3.402-1.496.382-.293.715-.672 1.004-.775.888-.324 1.855-.5 2.773-.72 1.837-.446 3.691-.83 5.546-1.197 3.642-.72 7.303-1.361 10.907-2.24a68 68 0 0 0 5.362-1.52c1.534-.507 2.927-1.002 4.227-1.985 1.695-1.275 3.802-4.242 6.249-3.296 1.232.476 1.7 1.508 2.169 2.643a42 42 0 0 0 2.163 4.524c1.596 2.863 3.518 5.524 5.576 8.076a103 103 0 0 0 3.193 3.76c1.053 1.19 1.811 2.338 2.47 3.791 1.338 2.943 2.669 5.793 3.014 9.04.376 3.535.012 7.076-.364 10.592a122 122 0 0 0-.634 9.224c-.031.983.123 2.063.887 2.771 1.097 1.02 2.607.635 3.925.385 6.169-1.148 11.345-4.853 16.293-8.46 1.264-.923 2.533-1.85 3.815-2.742 1.238-.86 2.594-1.605 3.617-2.728.968-1.069 1.676-2.308 2.311-3.59.672-1.349 1.46-2.661 2.058-4.041 1.399-3.23 1.454-6.69 1.035-10.127-.203-1.685-.369-3.419-.721-5.08-.252-1.177-.53-2.35-.684-3.546-.585-4.474-.308-9.791 3.254-13.07 1.978-1.819 4.813-2.667 7.395-3.247a25 25 0 0 1 8.572-.41c5.706.721 11.03 3.548 14.53 8.101 3.439 4.475 5.103 10.335 4.104 15.927-.899 5.042-4.239 9.737-7.844 13.259-3.765 3.675-8.264 6.513-12.904 8.974-2.305 1.22-4.665 2.35-7.037 3.43-2.891 1.319-5.811 2.106-8.979 2.479-3.617.433-7.308.805-10.95.805-3.784 0-7.567.007-11.351.043a502 502 0 0 0-11.745.232c-3.611.116-7.321.037-10.84.934-3.21.818-6.556 2.222-8.984 4.511-2.052 1.93-3.334 4.5-4.166 7.142-.795 2.522-1.17 5.14-1.676 7.723-.179.903.413 2.008 1.485 1.929 1.306-.092 2.644-.501 3.34-1.691.517-.885.524-2.045-.019-2.918-.616-.995-1.88-1.392-2.933-.824-1.239.659-1.651 2.246-1.873 3.51-.154.86.4 2.057 1.485 1.929 3.192-.36 6.409-.47 9.62-.513 2.803-.037 6.014.482 8.552-.977 2.07-1.19 3.285-3.29 4.142-5.427.443-1.105.782-2.246 1.09-3.394.327-1.208.5-2.52.968-3.68 1.053-2.62 3.752-4.53 6.396-5.33 1.892-.574 1.085-3.522-.82-2.942-2.57.781-4.99 2.277-6.698 4.34-.869 1.05-1.571 2.21-1.984 3.516-.37 1.154-.58 2.375-.9 3.54-.548 2.01-1.177 4.292-2.65 5.855-1.799 1.91-4.424 1.41-6.827 1.428-3.63.03-7.272.123-10.883.532l1.485 1.929c.074-.434.154-.88.302-1.295.043-.116.068-.177.105-.256.11-.275.055-.098.037-.116.025-.03.055-.055.08-.085a.5.5 0 0 1-.253.146c-.234.037-.363.08-.61.025-.24-.056-.154-.056-.252-.129-.037-.024-.364-.323-.185-.17-.062-.056-.08-.318-.05-.11.019.152-.11-.11 0-.019.044.037.031.128.019-.097.012.237.068-.098.012-.007-.08.122.204-.152-.018.025.228-.177-.019.012-.08.043a3 3 0 0 1-.58.116l1.486 1.929c.566-2.906.98-5.855 1.99-8.65 1.128-3.108 3.1-5.33 6.045-6.874 1.565-.824 3.248-1.392 4.967-1.807 1.916-.464 3.82-.513 5.786-.598 4.172-.177 8.35-.281 12.528-.342 4.24-.061 8.479-.073 12.725-.08 2.126 0 4.209-.03 6.329-.22 1.947-.17 3.901-.31 5.848-.524 3.636-.403 7.037-1.13 10.365-2.637 2.613-1.185 5.207-2.412 7.746-3.755 5.133-2.716 10.118-5.94 14.185-10.103 4.08-4.181 7.598-9.718 8.196-15.609.659-6.495-1.38-12.758-5.546-17.776s-10.389-7.88-16.854-8.51c-3.229-.31-6.544-.018-9.681.794-2.945.763-5.952 1.91-8.146 4.078-4.098 4.041-4.548 10.213-3.808 15.585.184 1.33.499 2.619.764 3.93.357 1.771.554 3.651.708 5.452.154 1.789.191 3.626-.215 5.384-.407 1.77-1.301 3.23-2.096 4.841-.659 1.331-1.263 2.772-2.249 3.907-1.06 1.215-2.576 1.99-3.882 2.918-2.822 1.996-5.558 4.12-8.467 5.994-2.754 1.765-5.669 3.285-8.874 4.072q-.61.149-1.232.269c-.216.043-1.072.043-1.208.213.037-.042.185.226.345.287.13.05-.141.275-.018-.036.012-.03-.043-.257-.019-.073-.061-.446.013-.916.037-1.368.043-.824.031-1.654.068-2.478.185-3.92.844-7.796 1.011-11.715.08-1.929.018-3.858-.235-5.768a21 21 0 0 0-1.49-5.464 144 144 0 0 0-1.948-4.462c-.727-1.594-1.676-2.839-2.835-4.151-2.397-2.71-4.701-5.507-6.673-8.547a44 44 0 0 1-2.6-4.566c-.765-1.556-1.196-3.345-2.306-4.7-1.99-2.424-5.484-2.967-8.078-1.19-1.257.854-2.305 1.947-3.5 2.88-1.387 1.087-3.032 1.52-4.702 2.028-3.876 1.184-7.857 1.977-11.832 2.74-3.913.751-8.03 1.343-11.813 2.6-.733.245-1.072.843-1.688 1.222-.272.17-1.19.39-1.658.592a15.4 15.4 0 0 0-3.691 2.228c-4.456 3.596-6.36 9.62-5.072 15.12.148.636.34 1.252.573 1.863.37.952.999 1.349 1.756 1.977 1.24 1.026 2.373 2.174 3.433 3.382 2.12 2.436 3.907 5.122 5.842 7.704 1.96 2.613 4.042 5.256 6.698 7.197 2.625 1.917 5.756 2.912 8.972 3.297 6.378.757 12.744-.983 19.011-1.88 3.765-.538 7.734.048 11.406.885 3.544.806 6.982 2.21 10.562 2.826 6.28 1.08 12.393-.879 17.47-4.548 5.349-3.864 9.681-9.071 13.299-14.534 3.999-6.05 6.877-12.728 8.99-19.626 2.2-7.167 4.998-14.169 6.6-21.5.419-1.91.746-3.846.986-5.787q.166-1.327.259-2.656c.037-.506.105-1.025-.166-1.483-.21-.354-.573-.647-.845-.952-2.076-2.302-3.999-4.646-7.382-4.695-7.826-.122-15.381-2.387-22.64-5.11-3.075-1.153-6.052-2.105-9.336-2.46-3.112-.335-6.26-.152-9.336.416-6.131 1.123-11.93 3.931-16.866 7.667-5.102 3.87-10.02 8.95-12.516 14.901-2.711 6.459-1.885 13.564.222 20.065 1.085 3.334 2.471 6.557 3.895 9.755.32.715.64 1.435.961 2.15.438.976 1.146 1.562 1.88 2.325 1.25 1.3 1.337 3.199 2.366 4.645.48.672 1.072 1.227 1.516 1.923.45.702.85 1.441 1.35 2.112 1.14 1.52 2.6 2.851 3.968 4.17 2.656 2.57 5.454 4.993 8.239 7.429 5.453 4.774 11.48 9.712 14.752 16.287 1.646 3.308 2.706 6.885 3.309 10.518.598 3.595.259 7.331-.067 10.945-.647 7.197-2.12 14.309-4.049 21.274-3.907 14.12-9.656 27.635-14.876 41.303-2.526 6.629-4.936 13.307-6.963 20.108-.616 1.843 2.354 2.649 2.915.763"/></svg>
